app/assets/images/heroicons/micro/shield-check.svg

<svg width="16" height="16" viewBox="0 0 16 16" fill="none" xmlns="http://www.w3.org/2000/svg">
<path fill-rule="evenodd" clip-rule="evenodd" d="M8.50019 1.70873C8.21543 1.45386 7.78457 1.45386 7.49981 1.70873C6.1781 2.89169 4.50633 3.6889 2.65985 3.92627C2.29508 3.97316 2.01813 4.27764 2.0059 4.64521C2.00198 4.7631 2 4.88145 2 5.00023C2 9.05223 4.29542 12.5669 7.65336 14.317C7.87059 14.4302 8.12941 14.4302 8.34664 14.317C11.7046 12.5669 14 9.05223 14 5.00023C14 4.88145 13.998 4.7631 13.9941 4.64522C13.9819 4.27764 13.7049 3.97316 13.3401 3.92627C11.4937 3.6889 9.8219 2.89169 8.50019 1.70873ZM10.8398 7.21337C11.0957 6.88766 11.0391 6.41617 10.7134 6.16026C10.3877 5.90435 9.91618 5.96093 9.66027 6.28664L7.39384 9.17119L6.23811 8.18056C5.92361 7.91099 5.45014 7.94741 5.18057 8.26191C4.911 8.5764 4.94743 9.04988 5.26192 9.31944L7.01192 10.8194C7.16716 10.9525 7.36999 11.0164 7.57347 10.9964C7.77695 10.9764 7.96343 10.8741 8.08975 10.7134L10.8398 7.21337Z" fill="black"/>
</svg>

<svg xmlns="http://www.w3.org/2000/svg" viewBox="0 0 16 16" fill="currentColor" aria-hidden="true" data-slot="icon">
  <path fill-rule="evenodd" d="M8.5 1.709a.75.75 0 0 0-1 0 8.963 8.963 0 0 1-4.84 2.217.75.75 0 0 0-.654.72 10.499 10.499 0 0 0 5.647 9.672.75.75 0 0 0 .694-.001 10.499 10.499 0 0 0 5.647-9.672.75.75 0 0 0-.654-.719A8.963 8.963 0 0 1 8.5 1.71Zm2.34 5.504a.75.75 0 0 0-1.18-.926L7.394 9.17l-1.156-.99a.75.75 0 1 0-.976 1.138l1.75 1.5a.75.75 0 0 0 1.078-.106l2.75-3.5Z" clip-rule="evenodd"/>
</svg>
